packages/components/Atoms/Icon/assets/img/rpl_icon_print.svg

<svg width="24" height="24" viewBox="0 0 24 24" overflow="visible" xmlns="http://www.w3.org/2000/svg">
  <path
    d="M18.75 12.375C19.0625 12.375 19.3281 12.4843 19.5468 12.7031C19.7656 12.9218 19.8749 13.1875 19.8749 13.5C19.8749 13.8125 19.7656 14.0781 19.5468 14.2968C19.3281 14.5156 19.0625 14.625 18.75 14.625C18.4375 14.625 18.1718 14.5156 17.9531 14.2968C17.7343 14.0781 17.625 13.8125 17.625 13.5C17.625 13.1875 17.7343 12.9218 17.9531 12.7031C18.1718 12.4843 18.4375 12.375 18.75 12.375ZM20.2499 8.24998C21.2812 8.24998 22.164 8.61717 22.8984 9.35154C23.6328 10.0859 23.9999 10.9687 23.9999 12V18C23.9999 18.2187 23.9296 18.3984 23.789 18.539C23.6484 18.6796 23.4687 18.75 23.2499 18.75H20.2499V23.2499C20.2499 23.4687 20.1796 23.6484 20.039 23.789C19.8984 23.9296 19.7187 23.9999 19.4999 23.9999H4.5C4.28125 23.9999 4.10156 23.9296 3.96094 23.789C3.82031 23.6484 3.75 23.4687 3.75 23.2499V18.75H0.75C0.53125 18.75 0.351562 18.6796 0.210938 18.539C0.0703125 18.3984 0 18.2187 0 18V12C0 10.9687 0.367189 10.0859 1.10156 9.35154C1.83594 8.61717 2.71875 8.24998 3.75 8.24998V1.5C3.75 1.09375 3.89063 0.742187 4.17188 0.445312C4.45312 0.148439 4.78125 0 5.15625 0H15.5625C16.1875 0 16.7187 0.218751 17.1562 0.65625L19.5937 3.09374C20.0312 3.53124 20.2499 4.06249 20.2499 4.68749V8.24998ZM6 2.24999V8.24998H18V5.24998H15.75C15.5312 5.24998 15.3515 5.17967 15.2109 5.03905C15.0703 4.89842 15 4.71874 15 4.49999V2.24999H6ZM18 21.7499V18.75H6V21.75L18 21.7499ZM21.7499 16.5V12C21.7499 11.5937 21.6015 11.2422 21.3046 10.9453C21.0078 10.6484 20.6562 10.5 20.2499 10.5H3.75C3.34375 10.5 2.99219 10.6484 2.69531 10.9453C2.39844 11.2422 2.25 11.5937 2.25 12V16.5H21.7499Z"
    fill="inherit" />
</svg>

<svg width="24" height="24" overflow="visible" xmlns="http://www.w3.org/2000/svg"><path d="M18.75 12.375c.313 0 .578.11.797.328.219.219.328.485.328.797 0 .313-.11.578-.328.797a1.085 1.085 0 01-.797.328c-.313 0-.578-.11-.797-.328a1.084 1.084 0 01-.328-.797c0-.313.11-.578.328-.797.219-.219.485-.328.797-.328zm1.5-4.125c1.031 0 1.914.367 2.648 1.102C23.633 10.086 24 10.969 24 12v6a.73.73 0 01-.211.539.73.73 0 01-.54.211h-3v4.5a.73.73 0 01-.21.539.73.73 0 01-.54.21H4.5a.73.73 0 01-.54-.21.73.73 0 01-.21-.54V18.75h-3a.73.73 0 01-.54-.211A.73.73 0 010 18v-6c0-1.031.367-1.914 1.102-2.648.734-.735 1.617-1.102 2.648-1.102V1.5c0-.406.14-.758.422-1.055.281-.297.61-.445.984-.445h10.407a2.17 2.17 0 011.593.656l2.438 2.438c.437.437.656.968.656 1.593V8.25zM6 2.25v6h12v-3h-2.25a.73.73 0 01-.54-.211A.73.73 0 0115 4.5V2.25H6zm12 19.5v-3H6v3h12zm3.75-5.25V12c0-.406-.148-.758-.445-1.055a1.441 1.441 0 00-1.055-.445H3.75c-.406 0-.758.148-1.055.445A1.442 1.442 0 002.25 12v4.5h19.5z" fill="inherit"/></svg>
